icon-svg/batman.svg

<svg xmlns="http://www.w3.org/2000/svg" viewBox="0 0 24 24"><path fill="#44739e" 
     d="M 11.859375 6.5722656 C 11.70375 6.5726562 11.549687 6.5758281 11.398438 6.5800781 C 9.7344392 6.6240781 7.8871392 6.9568911 6.4941406 7.4628906 C 5.7031414 7.7498903 5.0526869 8.060266 4.4296875 8.4472656 C 3.909688 8.7712653 3.5340621 9.0654066 3.1640625 9.4414062 A 4.5 4.5 0 0 0 2.5898438 10.138672 A 4 4 0 0 1 2.4785156 10.296875 A 7 7 0 0 0 2.2070312 10.863281 C 2.1350313 11.043281 2.0807812 11.234485 2.0507812 11.396484 A 3.7 3.7 0 0 0 2.03125 12.480469 C 2.07425 12.789468 2.1765158 13.096219 2.3535156 13.449219 C 2.5155155 13.773218 2.6537972 13.975563 2.9667969 14.351562 C 3.0997967 14.511562 3.3111719 14.738281 3.3261719 14.738281 C 3.3291719 14.738281 3.4269689 14.818063 3.5429688 14.914062 C 3.7969685 15.128062 3.9613596 15.25225 4.1933594 15.40625 C 4.7963588 15.80825 5.5745164 16.199235 6.3535156 16.490234 C 7.6535143 16.978234 9.3961109 17.327297 10.912109 17.404297 C 11.414109 17.430297 12.230391 17.434109 12.775391 17.412109 C 15.284388 17.314109 17.702111 16.671436 19.412109 15.648438 C 19.630109 15.517438 19.966297 15.298109 20.154297 15.162109 A 0.1 0.1 0 0 1 20.197266 15.138672 C 20.202266 15.138672 20.217422 15.125375 20.232422 15.109375 C 20.247422 15.093375 20.262578 15.080078 20.267578 15.080078 C 20.272578 15.080078 20.292594 15.065828 20.308594 15.048828 C 20.325594 15.029828 20.4395 14.922594 20.5625 14.808594 A 6.6 6.6 0 0 0 21.400391 13.886719 C 21.403391 13.879719 21.416641 13.863562 21.431641 13.851562 C 21.446641 13.839563 21.463703 13.813016 21.470703 13.791016 A 0.3 0.3 0 0 1 21.494141 13.738281 C 21.509141 13.721281 21.692141 13.346656 21.744141 13.222656 C 21.797141 13.100656 21.869391 12.888765 21.900391 12.759766 C 21.960391 12.522766 21.980141 12.370328 21.994141 12.111328 C 22.014141 11.703329 21.979125 11.472765 21.828125 11.009766 A 3.5 3.5 0 0 0 21.328125 10.033203 A 8 8 0 0 0 20.904297 9.5097656 A 13 13 0 0 0 20.388672 9.0429688 A 7.6 7.6 0 0 0 19.486328 8.4023438 A 10 10 0 0 0 17.740234 7.5585938 A 15.6 15.6 0 0 0 13.304688 6.6210938 C 12.811938 6.5880938 12.32625 6.5710938 11.859375 6.5722656 z M 11.791016 6.9648438 C 11.821016 6.9638438 12.023235 6.9667031 12.240234 6.9707031 C 13.385233 6.9947031 14.221688 7.0730002 15.179688 7.25 C 15.877687 7.3789999 16.487469 7.5342346 17.105469 7.7402344 C 17.643468 7.9202342 18.053625 8.0875002 18.515625 8.3125 A 7.5 7.5 0 0 1 20.201172 9.4042969 C 20.328172 9.5132968 20.727422 9.9019219 20.732422 9.9199219 C 20.733422 9.9269219 20.794188 10.010422 20.867188 10.107422 C 21.076187 10.388422 21.189969 10.569922 21.292969 10.794922 C 21.433969 11.102922 21.504156 11.349 21.535156 11.625 C 21.550156 11.76 21.550156 12.244188 21.535156 12.367188 A 2.7 2.7 0 0 1 21.287109 13.230469 C 21.248109 13.310469 21.21875 13.381719 21.21875 13.386719 C 21.21875 13.401719 21.100297 13.5875 21.029297 13.6875 C 20.774297 14.0415 20.569859 14.272547 20.255859 14.560547 A 3 3 0 0 0 20.083984 14.722656 A 3 3 0 0 0 19.900391 14.855469 A 9 9 0 0 1 19.0625 15.398438 C 17.886501 16.068437 16.506108 16.534782 14.912109 16.800781 C 13.92111 16.966781 13.049811 17.033203 11.882812 17.033203 C 11.265813 17.033203 10.974406 17.022562 10.441406 16.976562 C 8.5464081 16.811563 6.7676236 16.34439 5.390625 15.650391 A 8 8 0 0 1 4.0078125 14.785156 A 14 14 0 0 1 3.5136719 14.376953 L 3.4160156 14.261719 A 7 7 0 0 1 2.9511719 13.658203 A 3 3 0 0 1 2.4414062 12.355469 A 4.4 4.4 0 0 1 2.4375 11.654297 C 2.4785 11.358297 2.5314064 11.182875 2.6914062 10.796875 C 2.7664062 10.616875 2.7747189 10.602594 2.8867188 10.433594 C 3.1787185 9.9985942 3.3974379 9.746109 3.7734375 9.4121094 C 4.4644368 8.79811 5.5480324 8.2018277 6.7070312 7.7988281 C 8.1170298 7.3068286 9.8417985 7.0067031 11.466797 6.9707031 L 11.791016 6.9648438 z M 10.996094 7.3378906 C 10.990094 7.3378906 10.979656 7.3445625 10.972656 7.3515625 C 10.939656 7.3895625 10.916141 7.5830007 10.869141 8.25 C 10.825141 8.8769994 10.784844 9.1779065 10.714844 9.3789062 A 2.7 2.7 0 0 1 10.421875 9.9335938 A 1.1 1.1 0 0 1 10.021484 10.304688 C 9.8814845 10.383687 9.788531 10.403156 9.5195312 10.410156 A 1.95 1.95 0 0 1 8.6601562 10.269531 C 8.4341565 10.179531 8.1765468 10.014765 8.0605469 9.8847656 A 1.2 1.2 0 0 1 7.7890625 9.3066406 A 1.4 1.4 0 0 1 7.8027344 8.953125 A 2.15 2.15 0 0 1 8.1894531 8.171875 C 8.282453 8.0518751 8.49125 7.8027187 8.53125 7.7617188 L 8.5957031 7.6953125 L 8.6191406 7.6699219 L 8.5605469 7.6738281 A 15 15 0 0 0 6.40625 8.34375 C 5.2992511 8.7867496 4.4175306 9.3354225 3.7695312 9.9824219 C 3.3225317 10.428421 3.0157655 10.921297 2.8847656 11.404297 A 2.2 2.2 0 0 0 2.8574219 12.300781 C 2.9664218 12.911781 3.2780318 13.483891 3.8320312 14.087891 C 4.1933642 14.481224 4.6865475 14.84812 5.3105469 15.189453 A 11 11 0 0 0 7.2734375 15.992188 C 7.3524374 16.018187 7.3594687 16.019234 7.3554688 15.990234 C 7.3548021 15.974901 7.3486042 15.966177 7.3359375 15.964844 C 7.3159375 15.961844 7.207828 15.854781 7.0488281 15.675781 A 4 4 0 0 1 6.4140625 14.726562 A 2.1 2.1 0 0 1 6.2265625 13.927734 A 0.9 0.9 0 0 1 6.2636719 13.576172 A 1.1 1.1 0 0 1 6.4902344 13.181641 C 6.4902344 13.161641 6.655047 13.071062 6.7480469 13.039062 C 7.1187132 12.911063 7.5509692 12.972656 8.0429688 13.222656 C 8.2939685 13.350656 8.6081252 13.555328 8.828125 13.736328 C 8.9511249 13.837328 9.1115313 13.973859 9.1445312 14.005859 A 0.13 0.13 0 0 0 9.2128906 14.042969 L 9.2441406 14.046875 L 9.3261719 13.916016 C 9.4761717 13.680016 9.540922 13.602859 9.6699219 13.505859 A 1 1 0 0 1 9.8027344 13.421875 C 9.8487343 13.399875 9.8623126 13.396484 9.9453125 13.396484 C 10.143312 13.396484 10.293094 13.470016 10.496094 13.666016 C 10.650094 13.816015 10.757063 13.946641 10.914062 14.181641 C 11.133062 14.50964 11.360047 14.908391 11.748047 15.650391 C 11.833047 15.81039 11.909016 15.949984 11.916016 15.958984 A 0.3 0.3 0 0 1 11.951172 16.017578 L 11.972656 16.058594 L 12 16.005859 C 12.056 15.893859 12.626422 14.850969 12.732422 14.667969 C 13.078422 14.066969 13.367938 13.685062 13.585938 13.539062 A 0.76 0.76 0 0 1 13.972656 13.396484 C 14.145656 13.396484 14.329141 13.512563 14.494141 13.726562 A 3 3 0 0 1 14.699219 14.037109 C 14.699219 14.046109 14.707469 14.047969 14.730469 14.042969 C 14.753469 14.038969 14.804172 13.999953 14.951172 13.876953 A 5 5 0 0 1 15.474609 13.476562 C 15.988609 13.133563 16.462282 12.965422 16.863281 12.982422 A 0.9 0.9 0 0 1 17.373047 13.140625 C 17.550047 13.261625 17.664078 13.463563 17.705078 13.726562 C 17.716078 13.797562 17.717844 13.848078 17.714844 13.955078 A 2 2 0 0 1 17.5 14.777344 C 17.359 15.074343 17.217687 15.283953 16.929688 15.626953 C 16.744688 15.845953 16.654141 15.943984 16.619141 15.958984 C 16.599807 15.968318 16.590464 15.978854 16.591797 15.992188 C 16.591797 16.003187 16.596563 16.013672 16.601562 16.013672 C 16.607562 16.013672 16.651219 16.000375 16.699219 15.984375 L 16.863281 15.933594 C 16.945281 15.909594 17.544094 15.687422 17.746094 15.607422 A 7.6 7.6 0 0 0 19.671875 14.492188 C 20.012875 14.219188 20.330078 13.872093 20.580078 13.496094 C 20.863078 13.074094 21.054328 12.594296 21.111328 12.154297 C 21.124328 12.054297 21.123375 11.773687 21.109375 11.679688 C 21.037375 11.163688 20.807281 10.700593 20.363281 10.183594 C 19.842282 9.5745944 18.908671 8.9352339 17.888672 8.4902344 A 13 13 0 0 0 16.103516 7.8632812 C 15.477516 7.6882814 15.412187 7.671875 15.367188 7.671875 L 15.322266 7.671875 L 15.408203 7.7597656 C 15.569203 7.9237655 15.696266 8.0804846 15.822266 8.2714844 C 16.045265 8.607484 16.136438 8.8459065 16.148438 9.1289062 A 1 1 0 0 1 16.111328 9.46875 C 16.008328 9.8287496 15.683031 10.128828 15.207031 10.298828 C 14.970031 10.384828 14.816812 10.408203 14.507812 10.408203 C 14.141813 10.408203 14.036797 10.383859 13.841797 10.255859 C 13.674797 10.144859 13.47589 9.8930935 13.337891 9.6210938 C 13.185891 9.3170941 13.138422 9.1270152 13.107422 8.6660156 C 13.082422 8.292016 13.035719 7.7957186 13.011719 7.6367188 C 12.974719 7.398719 12.936719 7.3143282 12.886719 7.3613281 C 12.855719 7.3903281 12.784031 7.5270783 12.707031 7.7050781 C 12.618031 7.9130779 12.615266 7.92175 12.572266 7.96875 C 12.520266 8.0257499 12.500344 8.030625 12.402344 8.015625 A 3.5 3.5 0 0 0 11.554688 8.0117188 C 11.401688 8.0317187 11.372406 8.0159061 11.316406 7.8789062 A 4 4 0 0 0 11.089844 7.4277344 C 11.056844 7.3787344 11.014094 7.3378906 10.996094 7.3378906 z " />
</svg>

<svg xmlns="http://www.w3.org/2000/svg" viewBox="0 0 24 24"><path fill="#44739e" d="M11.86 6.573q-.234.001-.462.008c-1.664.044-3.51.377-4.904.883-.79.287-1.441.597-2.064.984a6.5 6.5 0 0 0-1.266.994 4.5 4.5 0 0 0-.574.698 4 4 0 0 1-.111.158 7 7 0 0 0-.272.566c-.072.18-.126.371-.156.533a3.7 3.7 0 0 0-.02 1.084c.043.31.146.616.323.97.162.323.3.526.613.902.133.16.344.386.36.386.002 0 .1.08.216.176a6 6 0 0 0 .65.492c.603.402 1.382.793 2.16 1.084 1.3.488 3.043.837 4.56.914.501.026 1.317.03 1.862.008 2.51-.098 4.928-.74 6.638-1.764.218-.13.554-.35.742-.486a.1.1 0 0 1 .043-.023c.005 0 .02-.014.035-.03s.03-.029.036-.029a.1.1 0 0 0 .04-.031c.018-.02.131-.126.255-.24a6.6 6.6 0 0 0 .837-.922.1.1 0 0 1 .032-.035.14.14 0 0 0 .039-.061.3.3 0 0 1 .023-.053c.015-.017.198-.391.25-.515.053-.122.125-.334.156-.463.06-.237.08-.39.094-.649.02-.408-.015-.638-.166-1.101a3.5 3.5 0 0 0-.5-.977 8 8 0 0 0-.424-.523 13 13 0 0 0-.515-.467 7.6 7.6 0 0 0-.903-.64 10 10 0 0 0-1.746-.844 15.6 15.6 0 0 0-4.436-.938 21 21 0 0 0-1.446-.049m-.069.393c.03-.001.232.002.45.006 1.144.024 1.98.102 2.939.279a14 14 0 0 1 1.926.49c.538.18.949.348 1.41.572a7.5 7.5 0 0 1 1.686 1.092c.127.11.526.498.531.516.001.007.062.09.135.187.21.281.323.463.426.688.141.308.211.554.242.83.015.135.015.62 0 .742a2.7 2.7 0 0 1-.248.863 1.4 1.4 0 0 0-.068.157c0 .015-.119.2-.19.3-.255.354-.46.586-.773.874a3 3 0 0 0-.172.162 3 3 0 0 0-.184.132 9 9 0 0 1-.837.543q-1.762 1.004-4.151 1.403c-.992.166-1.863.232-3.03.232-.617 0-.909-.01-1.442-.056-1.895-.165-3.673-.633-5.05-1.327a8 8 0 0 1-1.383-.865 14 14 0 0 1-.494-.408l-.098-.115a7 7 0 0 1-.465-.604 3 3 0 0 1-.51-1.303 4.4 4.4 0 0 1-.003-.7c.04-.297.093-.472.253-.858.075-.18.084-.194.196-.363.292-.435.51-.688.886-1.022.691-.614 1.775-1.21 2.934-1.613 1.41-.492 3.135-.792 4.76-.828Zm-.795.373q-.01.002-.023.014c-.033.038-.057.231-.104.898-.044.627-.084.928-.154 1.129a2.7 2.7 0 0 1-.293.555 1.1 1.1 0 0 1-.4.37c-.14.08-.233.1-.502.106a1.95 1.95 0 0 1-.86-.14c-.226-.09-.483-.255-.6-.385a1.2 1.2 0 0 1-.27-.578 1.4 1.4 0 0 1 .013-.354 2.15 2.15 0 0 1 .386-.781c.093-.12.302-.37.342-.41l.065-.067.023-.025-.058.004a15 15 0 0 0-2.155.67q-1.661.666-2.635 1.638c-.447.446-.754.94-.885 1.422a2.2 2.2 0 0 0-.028.897c.11.61.421 1.183.975 1.787q.542.59 1.479 1.101a11 11 0 0 0 1.962.803c.08.026.086.027.082-.002q0-.023-.02-.025c-.02-.003-.127-.11-.286-.29a4 4 0 0 1-.635-.948 2.1 2.1 0 0 1-.187-.8.9.9 0 0 1 .037-.35 1.1 1.1 0 0 1 .226-.395c0-.02.165-.11.258-.143q.556-.192 1.295.184c.251.128.565.332.785.513.123.101.284.238.317.27a.13.13 0 0 0 .068.037l.031.004.082-.131c.15-.236.215-.313.344-.41a1 1 0 0 1 .133-.084c.046-.022.06-.026.142-.026.198 0 .348.074.551.27.154.15.261.28.418.516.22.328.446.726.834 1.468.085.16.161.3.168.309a.3.3 0 0 1 .035.059l.022.04.027-.052a79 79 0 0 1 .732-1.338c.346-.601.636-.983.854-1.129a.76.76 0 0 1 .387-.143c.173 0 .356.117.521.33a3 3 0 0 1 .205.311q-.002.014.031.006c.023-.004.074-.043.221-.166a5 5 0 0 1 .524-.4c.514-.343.988-.512 1.389-.495a.9.9 0 0 1 .51.159c.177.12.291.323.332.586a1 1 0 0 1 .01.228 2 2 0 0 1-.215.822c-.141.297-.282.507-.57.85-.185.219-.276.317-.31.332q-.03.014-.028.033c0 .011.005.022.01.022a1 1 0 0 0 .097-.03l.164-.05c.082-.024.681-.247.883-.327a7.6 7.6 0 0 0 1.926-1.115c.34-.273.658-.62.908-.996.283-.422.474-.902.531-1.342.013-.1.012-.38-.002-.474-.072-.516-.302-.98-.746-1.496-.52-.61-1.454-1.249-2.474-1.694a13 13 0 0 0-1.786-.627c-.626-.175-.692-.191-.737-.191h-.045l.086.088c.161.164.288.32.414.511.223.336.314.575.326.858a1 1 0 0 1-.037.34c-.103.36-.428.66-.904.83-.237.086-.39.11-.7.11-.365 0-.47-.025-.665-.153-.167-.111-.366-.363-.504-.635-.152-.304-.2-.494-.23-.955a20 20 0 0 0-.096-1.03c-.037-.237-.075-.322-.125-.275-.031.03-.103.166-.18.344-.089.208-.092.217-.135.264-.052.057-.072.062-.17.047a3.5 3.5 0 0 0-.847-.004c-.153.02-.183.004-.239-.133a4 4 0 0 0-.226-.451c-.033-.05-.076-.09-.094-.09"/></svg>
